public/operators/withbg/sportsbet.svg

<svg width="150" height="120" viewBox="0 0 150 120" fill="none" xmlns="http://www.w3.org/2000/svg">
<rect width="150" height="120" fill="#2C323A"/>
<path fill-rule="evenodd" clip-rule="evenodd" d="M20.401 71.1153C26.5163 71.1153 31.4523 66.1765 31.4523 60.0577C31.4523 53.9388 26.5163 49 20.401 49C14.2856 49 9.34961 53.9388 9.34961 60.0577C9.34961 66.1765 14.2856 71.1153 20.401 71.1153ZM20.401 68.8426C25.2496 68.8426 29.1809 64.909 29.1809 60.0577C29.1809 55.2063 25.2496 51.2727 20.401 51.2727C15.5523 51.2727 11.621 55.2063 11.621 60.0577C11.621 64.909 15.5523 68.8426 20.401 68.8426Z" fill="white"/>
<path d="M14.3291 59.708C17.2994 59.708 19.6582 57.3042 19.6582 54.3759C19.6582 51.4475 17.2994 49 14.3291 49C11.4025 49 9 51.4038 9 54.3322C9 57.2605 11.4025 59.708 14.3291 59.708Z" fill="#0CD664"/>
<path d="M39.6206 57.173C39.6206 57.6975 39.8827 58.1783 40.4506 58.4842C40.9748 58.8339 41.8484 59.0961 43.0278 59.3584C44.5566 59.6643 45.736 60.1888 46.4786 60.8881C47.2212 61.5874 47.6143 62.5052 47.6143 63.6853C47.6143 64.8653 47.1338 65.9143 46.1728 66.7447C45.2118 67.5751 43.9451 68.0122 42.3726 68.0122C40.7127 68.0122 39.3585 67.5751 38.3976 66.7884C37.3929 65.958 36.7814 64.8653 36.4756 63.5104L38.7907 62.3304C39.2275 64.5594 40.4069 65.6957 42.3289 65.6957C43.1151 65.6957 43.7704 65.5209 44.2072 65.1713C44.6877 64.8216 44.9061 64.3409 44.9061 63.7727C44.9061 63.1608 44.644 62.68 44.0761 62.3304C43.5083 61.9807 42.6346 61.6748 41.4116 61.4562C40.0574 61.194 39.0091 60.7132 38.2228 60.0139C37.4366 59.3146 37.0434 58.3968 37.0434 57.2605C37.0434 56.1241 37.4803 55.1626 38.4412 54.4633C39.3585 53.764 40.5379 53.4143 42.0231 53.4143C44.6877 53.4143 46.4786 54.6381 47.3522 56.9982L45.2555 58.1346C44.6877 56.4737 43.5956 55.6433 41.9357 55.6433C41.2805 55.6433 40.7127 55.7744 40.2322 55.993C39.839 56.2989 39.6206 56.6486 39.6206 57.173ZM48.7063 71.8146V57.7412H51.2398V59.1835C51.5893 58.6591 52.0698 58.2657 52.6813 57.9598C53.2929 57.6538 53.9918 57.479 54.6907 57.479C56.0011 57.479 57.0931 57.9598 57.9668 58.9213C58.8404 59.8828 59.2772 61.1503 59.2772 62.7674C59.2772 64.3409 58.8404 65.6083 57.8794 66.5699C56.9621 67.5751 55.8264 68.0122 54.4723 68.0122C53.1181 68.0122 52.0698 67.4877 51.2398 66.4825V71.8146C51.2398 71.8146 48.7063 71.8146 48.7063 71.8146ZM55.9137 60.6695C55.3896 60.1014 54.6907 59.8391 53.9044 59.8391C53.0745 59.8391 52.4629 60.1014 51.8951 60.6695C51.3709 61.2377 51.0651 61.8933 51.0651 62.7237C51.0651 63.5541 51.3272 64.2097 51.8951 64.7779C52.4192 65.3461 53.1181 65.6083 53.9044 65.6083C54.7343 65.6083 55.3459 65.3461 55.9137 64.7779C56.4379 64.2097 56.7437 63.5541 56.7437 62.7237C56.7 61.8933 56.4379 61.2377 55.9137 60.6695ZM69.1492 58.8339C70.2412 59.7517 70.7654 61.0629 70.7654 62.68C70.7654 64.2971 70.2412 65.6083 69.1492 66.5262C68.1008 67.444 66.7904 67.9248 65.3052 67.9248C63.8637 67.9248 62.5533 67.444 61.4613 66.5262C60.4129 65.6083 59.8451 64.2971 59.8451 62.68C59.8451 61.0629 60.3692 59.7517 61.4613 58.8339C62.5096 57.916 63.82 57.4353 65.3052 57.4353C66.8341 57.4353 68.1008 57.916 69.1492 58.8339ZM63.3396 64.8216C63.9074 65.3461 64.5626 65.6083 65.3489 65.6083C66.1352 65.6083 66.7904 65.3461 67.3582 64.8216C67.9261 64.2971 68.1882 63.5979 68.1882 62.7237C68.1882 61.8496 67.9261 61.1503 67.3582 60.6258C66.7904 60.1014 66.1352 59.8391 65.3489 59.8391C64.5626 59.8391 63.9074 60.1014 63.3396 60.6258C62.7717 61.1503 62.5096 61.8496 62.5096 62.7237C62.5096 63.5979 62.7717 64.2971 63.3396 64.8216ZM78.1475 57.5664V59.9265C77.8854 59.7954 77.2302 59.8391 76.9244 59.8391C76.1818 59.8391 75.614 60.1014 75.1772 60.6695C74.7404 61.2377 74.522 61.937 74.522 62.7674V67.7062H71.9884V57.7412H74.522V59.3146C75.1335 58.0909 76.0508 57.4353 77.3176 57.4353C77.5796 57.4353 77.8854 57.5227 78.1475 57.5664ZM79.4143 57.7412V55.0314H81.9478V57.7412H84.1318V59.7954H81.9478V64.2971C81.9478 65.215 82.3846 65.6957 83.2145 65.6957C83.4766 65.6957 83.7824 65.652 84.0445 65.5646L84.3066 67.6625C83.7824 67.8811 83.2582 67.9248 82.603 67.9248C80.4626 67.9248 79.4143 66.8758 79.4143 64.7342V59.7954V57.7412ZM87.539 60.1888C87.539 60.8007 88.3252 61.2814 89.8978 61.5874C91.0335 61.8496 91.9071 62.1993 92.4313 62.68C92.9554 63.1608 93.2175 63.8164 93.2175 64.6468C93.2175 65.6083 92.8681 66.395 92.1692 67.0506C91.4703 67.6625 90.5093 67.9685 89.2862 67.9685C88.1505 67.9685 87.1895 67.7062 86.4033 67.1381C85.6607 66.5699 85.0928 65.8706 84.6997 64.9964L86.709 63.6853C86.9274 64.3409 87.2769 64.8653 87.7137 65.2587C88.1505 65.652 88.6747 65.8706 89.2862 65.8706C89.723 65.8706 90.0725 65.7832 90.3783 65.6083C90.684 65.3898 90.8587 65.1276 90.8587 64.7779C90.8587 64.472 90.684 64.166 90.3346 64.0349C89.9851 63.8164 89.4609 63.6853 88.7184 63.5104C86.4033 63.0734 85.2675 62.0244 85.2675 60.4073C85.2675 59.4895 85.617 58.7902 86.3596 58.3094C87.1022 57.7849 87.9758 57.5664 89.0241 57.5664C90.0725 57.5664 90.9461 57.7849 91.5576 58.1783C92.1692 58.5716 92.6934 59.2272 93.1302 60.1014L91.2956 61.194C90.8587 60.0577 90.0725 59.4458 89.0241 59.4458C88.0631 59.3146 87.539 59.5769 87.539 60.1888ZM94.1348 67.7062V53.6328H96.6683V58.965C97.4546 57.9598 98.5466 57.4353 99.9444 57.4353C101.342 57.4353 102.434 57.916 103.352 58.8339C104.269 59.7954 104.706 61.0629 104.706 62.68C104.706 64.2971 104.269 65.5646 103.308 66.5262C102.391 67.4877 101.255 67.9685 99.9008 67.9685C98.503 67.9685 97.4109 67.444 96.6683 66.4388V67.6625L94.1348 67.7062ZM97.3236 64.8216C97.8477 65.3461 98.5466 65.652 99.3329 65.652C100.163 65.652 100.818 65.3898 101.342 64.8216C101.866 64.2971 102.129 63.5979 102.129 62.7237C102.129 61.8933 101.866 61.194 101.342 60.6258C100.818 60.1014 100.119 59.7954 99.3329 59.7954C98.503 59.7954 97.8477 60.0577 97.3236 60.6258C96.7994 61.1503 96.5373 61.8496 96.5373 62.7237C96.5373 63.5541 96.7994 64.2534 97.3236 64.8216ZM115.451 63.3356H107.763C107.851 64.0786 108.113 64.7342 108.637 65.1713C109.161 65.6083 109.773 65.8269 110.515 65.8269C111.738 65.8269 112.656 65.215 113.267 63.9912L115.146 65.0839C114.228 67.0069 112.656 68.0122 110.472 68.0122C109.074 68.0122 107.851 67.5314 106.846 66.5699C105.841 65.5646 105.361 64.2971 105.361 62.7674C105.361 61.2377 105.885 59.9702 106.89 58.965C107.894 57.9598 109.161 57.5227 110.603 57.5227C112 57.5227 113.18 58.0035 114.097 58.9213C115.014 59.8391 115.495 61.0629 115.495 62.5052C115.451 62.5052 115.451 63.3356 115.451 63.3356ZM110.515 59.4021C109.86 59.4021 109.292 59.6206 108.812 60.0139C108.331 60.4073 107.982 60.9318 107.807 61.5H113.136C113.005 60.8444 112.699 60.3199 112.263 59.9702C111.826 59.5769 111.214 59.4021 110.515 59.4021ZM116.238 57.7412V55.0314H118.771V57.7412H120.955V59.7954H118.771V64.2971C118.771 65.215 119.208 65.6957 120.038 65.6957C120.3 65.6957 120.606 65.652 120.868 65.5646L121.13 67.6625C120.606 67.8811 120.081 67.9248 119.426 67.9248C117.286 67.9248 116.238 66.8758 116.238 64.7342V59.7954V57.7412ZM123.27 67.7062C124.013 67.7062 124.624 67.0943 124.624 66.3513C124.624 65.6083 124.013 64.9964 123.27 64.9964C122.528 64.9964 121.916 65.6083 121.916 66.3513C121.916 67.0943 122.528 67.7062 123.27 67.7062ZM125.716 67.7062V57.7412H128.25V67.7062H125.716ZM138.384 58.8339C139.476 59.7517 140 61.0629 140 62.68C140 64.2971 139.476 65.6083 138.384 66.5262C137.336 67.444 136.025 67.9248 134.54 67.9248C133.099 67.9248 131.788 67.444 130.696 66.5262C129.648 65.6083 129.08 64.2971 129.08 62.68C129.08 61.0629 129.604 59.7517 130.696 58.8339C131.744 57.916 133.055 57.4353 134.54 57.4353C136.025 57.4353 137.292 57.916 138.384 58.8339ZM132.531 64.8216C133.099 65.3461 133.754 65.6083 134.54 65.6083C135.326 65.6083 135.981 65.3461 136.549 64.8216C137.117 64.2971 137.379 63.5979 137.379 62.7237C137.379 61.8496 137.117 61.1503 136.549 60.6258C135.981 60.1014 135.326 59.8391 134.54 59.8391C133.754 59.8391 133.099 60.1014 132.531 60.6258C131.963 61.1503 131.701 61.8496 131.701 62.7237C131.701 63.5979 131.963 64.2971 132.531 64.8216Z" fill="white"/>
<path d="M125.585 54.9877C125.585 55.7307 126.197 56.3426 126.939 56.3426C127.682 56.3426 128.293 55.7307 128.293 54.9877C128.293 54.2447 127.682 53.6329 126.939 53.6329C126.197 53.6329 125.585 54.201 125.585 54.9877Z" fill="#0CD664"/>
</svg>

<svg xmlns="http://www.w3.org/2000/svg" width="150" height="120" fill="none"><path fill="#2C323A" d="M0 0h150v120H0z"/><path fill="#fff" fill-rule="evenodd" d="M20.4 71.12c6.12 0 11.05-4.94 11.05-11.06a11.04 11.04 0 1 0-22.1 0c0 6.12 4.94 11.06 11.05 11.06Zm0-2.28a8.78 8.78 0 1 0 0-17.56 8.78 8.78 0 0 0 0 17.56Z" clip-rule="evenodd"/><path fill="#0CD664" d="M14.33 59.7c2.97 0 5.33-2.4 5.33-5.32A5.36 5.36 0 0 0 14.33 49a5.35 5.35 0 0 0 0 10.7Z"/><path fill="#fff" d="M39.62 57.17c0 .53.26 1 .83 1.31.52.35 1.4.62 2.58.88 1.53.3 2.7.83 3.45 1.53.74.7 1.13 1.62 1.13 2.8 0 1.18-.48 2.22-1.44 3.05a5.62 5.62 0 0 1-3.8 1.27 6.17 6.17 0 0 1-3.97-1.22 5.7 5.7 0 0 1-1.92-3.28l2.31-1.18c.44 2.23 1.62 3.37 3.54 3.37a3 3 0 0 0 1.88-.53c.48-.35.7-.83.7-1.4 0-.6-.27-1.09-.83-1.44a7.84 7.84 0 0 0-2.67-.87A6.54 6.54 0 0 1 38.22 60a3.5 3.5 0 0 1-1.18-2.75c0-1.14.44-2.1 1.4-2.8.92-.7 2.1-1.05 3.58-1.05 2.67 0 4.46 1.23 5.33 3.59l-2.1 1.13c-.56-1.66-1.65-2.49-3.31-2.49-.66 0-1.23.13-1.7.35-.4.3-.62.66-.62 1.18Zm9.09 14.64V57.74h2.53v1.44a3.6 3.6 0 0 1 1.44-1.22c.61-.3 1.31-.48 2.01-.48 1.31 0 2.4.48 3.28 1.44a5.48 5.48 0 0 1 1.3 3.85c0 1.57-.43 2.84-1.4 3.8a4.37 4.37 0 0 1-3.4 1.44c-1.35 0-2.4-.52-3.23-1.53v5.33h-2.53Zm7.2-11.14a2.64 2.64 0 0 0-2-.83c-.84 0-1.45.26-2.01.83a2.9 2.9 0 0 0-.83 2.05c0 .83.26 1.49.83 2.06.52.57 1.22.83 2 .83.83 0 1.45-.26 2.01-.83a2.9 2.9 0 0 0 .83-2.06 3.11 3.11 0 0 0-.83-2.05Zm13.24-1.84a4.77 4.77 0 0 1 1.62 3.85c0 1.62-.53 2.93-1.62 3.85a5.7 5.7 0 0 1-3.84 1.4 5.86 5.86 0 0 1-3.85-1.4 4.91 4.91 0 0 1-1.61-3.85c0-1.62.52-2.93 1.61-3.85a5.7 5.7 0 0 1 3.85-1.4c1.52 0 2.8.49 3.84 1.4Zm-5.81 6c.57.52 1.22.78 2 .78.8 0 1.45-.26 2.02-.79a2.7 2.7 0 0 0 .83-2.1 2.7 2.7 0 0 0-.83-2.1 2.84 2.84 0 0 0-2.01-.78c-.79 0-1.44.26-2.01.79a2.7 2.7 0 0 0-.83 2.1c0 .87.26 1.57.83 2.1Zm14.8-7.26v2.36c-.25-.13-.91-.1-1.22-.1-.74 0-1.3.27-1.74.84a3.34 3.34 0 0 0-.66 2.1v4.94H72v-9.97h2.53v1.57c.61-1.22 1.53-1.87 2.8-1.87.26 0 .57.08.83.13Zm1.27.17v-2.7h2.54v2.7h2.18v2.06h-2.18v4.5c0 .92.43 1.4 1.26 1.4.27 0 .57-.05.83-.14l.27 2.1c-.53.22-1.05.26-1.7.26-2.15 0-3.2-1.04-3.2-3.19v-6.99Zm8.13 2.45c0 .61.79 1.1 2.36 1.4 1.13.26 2 .6 2.53 1.09.53.48.79 1.14.79 1.97 0 .96-.35 1.74-1.05 2.4-.7.61-1.66.92-2.88.92-1.14 0-2.1-.26-2.89-.83A5.47 5.47 0 0 1 84.7 65l2-1.31c.23.65.58 1.18 1.01 1.57.44.4.96.61 1.58.61.43 0 .78-.09 1.09-.26.3-.22.48-.48.48-.83 0-.3-.18-.61-.53-.75a5.8 5.8 0 0 0-1.61-.52c-2.32-.44-3.45-1.49-3.45-3.1 0-.92.35-1.62 1.09-2.1a4.45 4.45 0 0 1 2.66-.74c1.05 0 1.93.21 2.54.6.6.4 1.13 1.06 1.57 1.93l-1.83 1.1c-.44-1.14-1.23-1.75-2.28-1.75-.96-.14-1.48.13-1.48.74Zm6.6 7.52V53.63h2.53v5.34c.78-1.01 1.88-1.53 3.27-1.53 1.4 0 2.5.48 3.41 1.4a5.3 5.3 0 0 1 1.36 3.84c0 1.62-.44 2.88-1.4 3.85a4.52 4.52 0 0 1-3.4 1.44 3.8 3.8 0 0 1-3.24-1.53v1.22l-2.54.05Zm3.18-2.89a2.8 2.8 0 0 0 2.01.83c.83 0 1.49-.26 2.01-.83.53-.52.79-1.22.79-2.1 0-.83-.26-1.53-.79-2.1a2.8 2.8 0 0 0-2-.82c-.84 0-1.5.26-2.02.83a2.84 2.84 0 0 0-.78 2.1c0 .82.26 1.52.78 2.1Zm18.13-1.48h-7.69c.1.74.35 1.4.88 1.83.52.44 1.13.66 1.88.66 1.22 0 2.14-.61 2.75-1.84l1.88 1.1a4.84 4.84 0 0 1-4.68 2.92c-1.4 0-2.62-.48-3.62-1.44-1-1-1.49-2.27-1.49-3.8 0-1.53.53-2.8 1.53-3.8 1-1.01 2.27-1.45 3.71-1.45a4.77 4.77 0 0 1 4.9 4.99c-.05 0-.05.83-.05.83Zm-4.94-3.94c-.65 0-1.22.22-1.7.61-.48.4-.83.92-1 1.49h5.33a2.56 2.56 0 0 0-.88-1.53 2.55 2.55 0 0 0-1.75-.57Zm5.73-1.66v-2.7h2.53v2.7h2.19v2.06h-2.19v4.5c0 .92.44 1.4 1.27 1.4.26 0 .57-.05.83-.14l.26 2.1c-.52.22-1.05.26-1.7.26-2.14 0-3.2-1.04-3.2-3.19v-6.99Zm7.03 9.97c.74 0 1.35-.62 1.35-1.36 0-.74-.6-1.35-1.35-1.35-.74 0-1.35.6-1.35 1.35 0 .74.6 1.36 1.35 1.36Zm2.45 0v-9.97h2.53v9.97h-2.53Zm12.66-8.88a4.77 4.77 0 0 1 1.62 3.85c0 1.62-.52 2.93-1.62 3.85a5.7 5.7 0 0 1-3.84 1.4 5.86 5.86 0 0 1-3.84-1.4 4.91 4.91 0 0 1-1.62-3.85c0-1.62.52-2.93 1.62-3.85a5.7 5.7 0 0 1 3.84-1.4c1.49 0 2.75.49 3.84 1.4Zm-5.85 6c.57.52 1.22.78 2.01.78.79 0 1.44-.26 2-.79a2.7 2.7 0 0 0 .84-2.1 2.7 2.7 0 0 0-.83-2.1 2.84 2.84 0 0 0-2.01-.78c-.79 0-1.44.26-2 .79a2.7 2.7 0 0 0-.84 2.1c0 .87.26 1.57.83 2.1Z"/><path fill="#0CD664" d="M125.58 54.99c0 .74.62 1.35 1.36 1.35.74 0 1.35-.6 1.35-1.35 0-.75-.6-1.36-1.35-1.36-.74 0-1.36.57-1.36 1.36Z"/></svg>
